svgs/light/cart-flatbed-boxes.svg

<svg xmlns="http://www.w3.org/2000/svg" viewBox="0 0 640 512"><!--! Font Awesome Pro 6.1.1 by @fontawesome - https://fontawesome.com License - https://fontawesome.com/license (Commercial License) Copyright 2022 Fonticons, Inc. --><path d="M448 160h64c17.67 0 32-14.33 32-32V64c0-17.67-14.33-32-32-32h-64c-17.67 0-32 14.33-32 32v64C416 145.7 430.3 160 448 160zM448 64h64v64h-64V64zM224 320h128c17.67 0 32-14.33 32-32V64c0-17.67-14.33-32-32-32H224C206.3 32 192 46.33 192 64v224C192 305.7 206.3 320 224 320zM224 64h128v224H224V64zM448 320h128c17.67 0 32-14.33 32-32V224c0-17.67-14.33-32-32-32h-128c-17.67 0-32 14.33-32 32v64C416 305.7 430.3 320 448 320zM448 224h128v64h-128V224zM624 384H128V48C128 21.49 106.5 0 80 0h-64C7.156 0 0 7.156 0 16S7.156 32 16 32h64C88.84 32 96 39.16 96 48V384c0 17.67 14.33 32 32 32h24.88c-8.404 14.44-11.86 32.12-5.859 51.24c7.027 22.4 26.86 40.01 50.02 43.85C237.2 517.8 272 486.9 272 448c0-11.72-3.379-22.55-8.877-32h177.8C435.4 425.4 432 436.3 432 448c0 38.91 34.79 69.71 74.93 63.1c23.17-3.816 43.01-21.44 50.04-43.84C562.1 448.1 559.5 430.4 551.1 416H624c8.844 0 16-7.156 16-16S632.8 384 624 384zM208 480c-17.64 0-32-14.36-32-32s14.36-32 32-32s32 14.36 32 32S225.6 480 208 480zM496 480c-17.64 0-32-14.36-32-32s14.36-32 32-32s32 14.36 32 32S513.6 480 496 480z"/></svg>

<svg xmlns="http://www.w3.org/2000/svg" viewBox="0 0 640 512"><!--! Font Awesome Pro 6.4.2 by @fontawesome - https://fontawesome.com License - https://fontawesome.com/license (Commercial License) Copyright 2023 Fonticons, Inc. --><path d="M16 0C7.2 0 0 7.2 0 16s7.2 16 16 16H80c8.8 0 16 7.2 16 16V368c0 26.5 21.5 48 48 48h24.6c-5.4 9.4-8.6 20.3-8.6 32c0 35.3 28.7 64 64 64s64-28.7 64-64c0-11.7-3.1-22.6-8.6-32H456.6c-5.4 9.4-8.6 20.3-8.6 32c0 35.3 28.7 64 64 64s64-28.7 64-64c0-11.7-3.1-22.6-8.6-32H624c8.8 0 16-7.2 16-16s-7.2-16-16-16H512 224 144c-8.8 0-16-7.2-16-16V48c0-26.5-21.5-48-48-48H16zM544 448a32 32 0 1 1 -64 0 32 32 0 1 1 64 0zM224 480a32 32 0 1 1 0-64 32 32 0 1 1 0 64zm0-416H352V288H224l0-224zm-32 0V288c0 17.7 14.3 32 32 32H352c17.7 0 32-14.3 32-32V64c0-17.7-14.3-32-32-32H224c-17.7 0-32 14.3-32 32zm320 0v64H448V64h64zM448 32c-17.7 0-32 14.3-32 32v64c0 17.7 14.3 32 32 32h64c17.7 0 32-14.3 32-32V64c0-17.7-14.3-32-32-32H448zm0 192H576v64H448V224zm-32 0v64c0 17.7 14.3 32 32 32H576c17.7 0 32-14.3 32-32V224c0-17.7-14.3-32-32-32H448c-17.7 0-32 14.3-32 32z"/></svg>
